X:W
T:Deil wip (19


*****************************


17900 0 1.3762051 

<stark>
cAG|F2d BGD ~D3|~B3 cBG E2D|FD~E2 D2F G2A:|
|:~23e fec efd|Bdg aed c2B||
P:versaion-
^4-d e2f|gfa


*****************************


18000 0 1.5905796 

<star>d2
M:9/8
K:D
FEG A2F G2G|1 E2G G2E D2d:|2 d2e e2e ~G3|d2d d2G A2B||
|:ce~g fed e2^f|g2d e2d e2f|gge


*****************************


18100 0 0.4642143 

<start>
